X:290
T:Patsy Geary's
R:Jig
O:Ireland
N:From Richard Robinson's Tunebook
M:6/8
K:DMix
G| F2A AFA|BcB A2G|F2A d2e|f3 fef|\
g3 f3|efe d2B|1 ABA AFD|E3 A2 :|2 ABA f2e|d3 d2|
|:e| f2e f2e|fgf fed|A2A BAF|A3 ABd|\
e3 efe|efe dfa|b2a afe|d3 d2:|
